X: 3058
T: MAJOR STEWART
Q:"Reel."
R: Reel.
%R:reel
B: James Kerr "Merry Melodies" v.3 p.8 #58
Z: 2016 John Chambers <jc:trillian.mit.edu>
M: C
L: 1/8
K: G
|:\
   G2g2 (a/g/f) g2 | dgBg dgBg |\
   G2g2 (a/g/f) g2 | faAB cBcA ::\
   gaeg (dg)B2 | gaeg fgaf |\
[1 gaeg (dg)B2 | ABcd e2d2 :|\
[2 gefa  egdg  | caBg A2d2 |]

%%sep 1 1 500
%%sep 1 1 500

